src/Components/SVG/Doctor.svg

<?xml version="1.0" ?><svg viewBox="0 0 64 64" xmlns="http://www.w3.org/2000/svg"><title/><g data-name="30-Doctor" id="_30-Doctor"><path d="M23,11.62V17H22a2.006,2.006,0,0,0-2,2V14A6.278,6.278,0,0,1,23,11.62Z" style="fill:#40240f"/><path d="M44,14v5a2.006,2.006,0,0,0-2-2H41V11.62A6.278,6.278,0,0,1,44,14Z" style="fill:#40240f"/><polygon points="53.19 51.95 54 55 51 55 45 55 45 52 53 52 53.19 51.95" style="fill:#13969d"/><polygon points="51 55 51 63 45 63 45 58 45 55 51 55" style="fill:#f2c4b2"/><path d="M50,40,39.86,37.1,32,43l-7.86-5.9L14,40,10.8,52H19V63H45V52h8l.19-.05ZM40,60H37a2.006,2.006,0,0,1-2-2V52h7v6A2.006,2.006,0,0,1,40,60Z" style="fill:#34c1ad"/><path d="M44,19v1.39a2.993,2.993,0,0,1-1.34,2.5L41,24a22.282,22.282,0,0,0-9-2,22.282,22.282,0,0,0-9,2l-1.66-1.11A2.993,2.993,0,0,1,20,20.39V19a2.006,2.006,0,0,1,2-2h1V11.62A20.967,20.967,0,0,1,32,10a20.967,20.967,0,0,1,9,1.62V17h1A2.006,2.006,0,0,1,44,19Z" style="fill:#f2c4b2"/><path d="M41,11.62A20.967,20.967,0,0,0,32,10a20.967,20.967,0,0,0-9,1.62A6.278,6.278,0,0,0,20,14V9a8,8,0,0,1,8-8h8a8,8,0,0,1,8,8v5A6.278,6.278,0,0,0,41,11.62Z" style="fill:#34c1ad"/><path d="M23,13.62v-2A6.278,6.278,0,0,0,20,14v2A6.278,6.278,0,0,1,23,13.62Z" style="fill:#241408"/><path d="M41,11.62v2A6.278,6.278,0,0,1,44,16V14A6.278,6.278,0,0,0,41,11.62Z" style="fill:#241408"/><path d="M32,12a20.967,20.967,0,0,1,9,1.62v-2A20.967,20.967,0,0,0,32,10a20.967,20.967,0,0,0-9,1.62v2A20.967,20.967,0,0,1,32,12Z" style="fill:#f2a283"/><path d="M42,52v6a2.006,2.006,0,0,1-2,2H37a2.006,2.006,0,0,1-2-2V52Z" style="fill:#13969d"/><polygon points="39.86 37.1 32 43 24.14 37.1 28 36 32 39 36 36 39.86 37.1" style="fill:#13969d"/><path d="M36,30.08a9.156,9.156,0,0,1-8,0A9.045,9.045,0,0,1,23,24a22.282,22.282,0,0,1,9-2,22.282,22.282,0,0,1,9,2A9.045,9.045,0,0,1,36,30.08Z" style="fill:#13969d"/><path d="M36,30.08V36l-4,3-4-3V30.08a9.156,9.156,0,0,0,8,0Z" style="fill:#f2b59d"/><rect height="8" style="fill:#f2c4b2" width="6" x="13" y="55"/><polygon points="19 52 19 55 13 55 10 55 10.8 52 19 52" style="fill:#13969d"/><path d="M51,55H45v8h3V59a2,2,0,0,1,2-2h1Z" style="fill:#f2a283"/><path d="M13,55h6v8H16V59a2,2,0,0,0-2-2H13Z" style="fill:#f2a283"/><path d="M36,30.08a9.156,9.156,0,0,1-8,0V36l.706.529L36,31.667Z" style="fill:#f2a283"/><path d="M41,18v4l.894-.447A2,2,0,0,0,43,19.764V19a1,1,0,0,0-1-1Z" style="fill:#d9896d"/><path d="M23,18v4l-.894-.447A2,2,0,0,1,21,19.764V19a1,1,0,0,1,1-1Z" style="fill:#d9896d"/><ellipse cx="32" cy="21" rx="0.5" ry="1" style="fill:#d9896d"/><path d="M34.4,13.987a.32.32,0,0,1-.042.01c-.2.036-.353-.282-.353-.5,0-.061.023-1.5,2-1.5s2,1.439,2,1.5a.528.528,0,0,1-.225.45c-.145.089-.287.006-.4-.13-.055-.068-.1-.152-.157-.216a.761.761,0,0,0-.2-.142,2.943,2.943,0,0,0-.553-.251,1.6,1.6,0,0,0-1.486.327A2.117,2.117,0,0,1,34.4,13.987Z" style="fill:#43251a"/><path d="M29.605,13.987a.32.32,0,0,0,.042.01c.2.036.353-.282.353-.5,0-.061-.023-1.5-2-1.5s-2,1.439-2,1.5a.528.528,0,0,0,.225.45c.145.089.287.006.4-.13.055-.068.1-.152.157-.216a.761.761,0,0,1,.2-.142,2.943,2.943,0,0,1,.553-.251,1.6,1.6,0,0,1,1.486.327A2.117,2.117,0,0,0,29.605,13.987Z" style="fill:#43251a"/><ellipse cx="36.5" cy="18.5" rx="1" ry="2" style="fill:#43251a"/><ellipse cx="27.5" cy="18.5" rx="1" ry="2" style="fill:#43251a"/><path d="M39,7H28a3,3,0,0,1,0-6,8,8,0,0,0-8,8v5a6.278,6.278,0,0,1,3-2.38A20.967,20.967,0,0,1,32,10a20.967,20.967,0,0,1,9,1.62A6.278,6.278,0,0,1,44,14V12A5,5,0,0,0,39,7Z" style="fill:#21abab"/><path d="M41,9.62A20.967,20.967,0,0,0,32,8a20.967,20.967,0,0,0-9,1.62A6.278,6.278,0,0,0,20,12v2a6.278,6.278,0,0,1,3-2.38A20.967,20.967,0,0,1,32,10a20.967,20.967,0,0,1,9,1.62A6.278,6.278,0,0,1,44,14V12A6.278,6.278,0,0,0,41,9.62Z" style="fill:#13969d"/><polygon points="47 54 47 52 45 52 45 55 51 55 54 55 53.734 54 47 54" style="fill:#107c82"/><polygon points="17 54 10.267 54 10 55 13 55 19 55 19 52 17 52 17 54" style="fill:#107c82"/><path d="M45,52V45h0a2,2,0,0,1,2,2v5Z" style="fill:#21abab"/><path d="M19,52V45h0a2,2,0,0,0-2,2v5Z" style="fill:#21abab"/><path d="M29.114,37.257l.3-.2L28,36l-3.86,1.1L32,43l1.052-.79-4.023-3.353A1,1,0,0,1,29.114,37.257Z" style="fill:#107c82"/><path d="M40,60H37a2,2,0,0,1-1.992-1.918C25.6,56.276,19,52,19,47V63H45V59c-1.094,0-2.169-.035-3.228-.095A2,2,0,0,1,40,60Z" style="fill:#21abab"/><rect height="2" style="fill:#107c82" width="7" x="35" y="52"/><path d="M26.068,22.871A19.853,19.853,0,0,0,23,24a9.045,9.045,0,0,0,5,6.08,9.156,9.156,0,0,0,8,0c.069-.033.134-.075.2-.109C30.894,29.694,26.635,26.691,26.068,22.871Z" style="fill:#107c82"/><path d="M22.5,37V56.639l-2.658.886A.5.5,0,0,0,19.5,58v5h1V58.36l2.5-.833,2.5.833V63h1V58a.5.5,0,0,0-.342-.475L23.5,56.64V37A2.5,2.5,0,0,1,26,34.5h2v-1H26A3.5,3.5,0,0,0,22.5,37Z" style="fill:#e3e3e3"/><path d="M38,33.5H36v1h2A2.5,2.5,0,0,1,40.5,37V52h1V37A3.5,3.5,0,0,0,38,33.5Z" style="fill:#e3e3e3"/></g></svg>

<?xml version="1.0" encoding="utf-8"?>
<!-- Generator: Adobe Illustrator 21.0.2, SVG Export Plug-In . SVG Version: 6.00 Build 0)  -->
<svg version="1.1" id="Layer_1" xmlns="http://www.w3.org/2000/svg" xmlns:xlink="http://www.w3.org/1999/xlink" x="0px" y="0px"
	 viewBox="0 0 64 64" style="enable-background:new 0 0 64 64;" xml:space="preserve">
<style type="text/css">
	.st0{fill:#40240F;}
	.st1{fill:#13969D;}
	.st2{fill:#F2C4B2;}
	.st3{fill:#34C1AD;}
	.st4{fill:#F2B59D;}
	.st5{fill:#D9896D;}
	.st6{fill:#43251A;}
	.st7{fill:#107C82;}
	.st8{fill:#E3E3E3;}
</style>
<title></title>
<g id="_30-Doctor">
	<path class="st0" d="M23,11.6V17h-1c-1.1,0-2,0.9-2,2v-5C20.7,12.9,21.8,12.1,23,11.6z"/>
	<path class="st0" d="M44,14v5c0-1.1-0.9-2-2-2h-1v-5.4C42.2,12.1,43.3,12.9,44,14z"/>
	<polygon class="st1" points="53.2,52 54,55 51,55 45,55 45,52 53,52 	"/>
	<polygon class="st2" points="51,55 51,63 45,63 45,58 45,55 	"/>
	<path class="st3" d="M50,40l-10.1-2.9L32,43l-7.9-5.9L14,40l-3.2,12H19v11h26V52h8l0.2,0L50,40z M40,60h-3c-1.1,0-2-0.9-2-2v-6h7v6
		C42,59.1,41.1,60,40,60z"/>
	<path class="st2" d="M44,19v1.4c0,1-0.5,1.9-1.3,2.5L41,24c-2.8-1.3-5.9-2-9-2c-3.1,0-6.2,0.7-9,2l-1.7-1.1
		c-0.8-0.6-1.3-1.5-1.3-2.5V19c0-1.1,0.9-2,2-2h1v-5.4c2.8-1.2,5.9-1.7,9-1.6c3.1-0.1,6.2,0.4,9,1.6V17h1C43.1,17,44,17.9,44,19z"/>
	<path class="st3" d="M41,11.6c-2.8-1.2-5.9-1.7-9-1.6c-3.1-0.1-6.2,0.4-9,1.6c-1.2,0.5-2.3,1.3-3,2.4V9c0-4.4,3.6-8,8-8h8
		c4.4,0,8,3.6,8,8v5C43.3,12.9,42.2,12.1,41,11.6z"/>
	<path class="st1" d="M42,52v6c0,1.1-0.9,2-2,2h-3c-1.1,0-2-0.9-2-2v-6H42z"/>
	<polygon class="st1" points="39.9,37.1 32,43 24.1,37.1 28,36 32,39 36,36 	"/>
	<path class="st1" d="M36,30.1c-2.5,1.2-5.5,1.2-8,0c-2.5-1.2-4.3-3.4-5-6.1c2.8-1.3,5.9-2,9-2c3.1,0,6.2,0.7,9,2
		C40.3,26.7,38.5,28.9,36,30.1z"/>
	<path class="st4" d="M36,30.1V36l-4,3l-4-3v-5.9C30.5,31.3,33.5,31.3,36,30.1z"/>
	<rect x="13" y="55" class="st2" width="6" height="8"/>
	<polygon class="st1" points="19,52 19,55 13,55 10,55 10.8,52 	"/>
	<path class="st5" d="M41,18v4l0.9-0.4c0.7-0.3,1.1-1,1.1-1.8V19c0-0.6-0.4-1-1-1H41z"/>
	<path class="st5" d="M23,18v4l-0.9-0.4c-0.7-0.3-1.1-1-1.1-1.8V19c0-0.6,0.4-1,1-1H23z"/>
	<ellipse class="st5" cx="32" cy="21" rx="0.5" ry="1"/>
	<path class="st6" d="M34.4,14C34.4,14,34.4,14,34.4,14c-0.2,0-0.4-0.3-0.4-0.5c0-0.1,0-1.5,2-1.5s2,1.4,2,1.5
		c0,0.2-0.1,0.3-0.2,0.4c-0.1,0.1-0.3,0-0.4-0.1c-0.1-0.1-0.1-0.2-0.2-0.2c-0.1-0.1-0.1-0.1-0.2-0.1c-0.2-0.1-0.4-0.2-0.6-0.3
		c-0.5-0.1-1.1,0-1.5,0.3C34.8,13.7,34.6,13.9,34.4,14z"/>
	<path class="st6" d="M29.6,14C29.6,14,29.6,14,29.6,14c0.2,0,0.4-0.3,0.4-0.5c0-0.1,0-1.5-2-1.5s-2,1.4-2,1.5
		c0,0.2,0.1,0.3,0.2,0.4c0.1,0.1,0.3,0,0.4-0.1c0.1-0.1,0.1-0.2,0.2-0.2c0.1-0.1,0.1-0.1,0.2-0.1c0.2-0.1,0.4-0.2,0.6-0.3
		c0.5-0.1,1.1,0,1.5,0.3C29.2,13.7,29.4,13.9,29.6,14z"/>
	<ellipse class="st6" cx="36.5" cy="18.5" rx="1" ry="2"/>
	<ellipse class="st6" cx="27.5" cy="18.5" rx="1" ry="2"/>
	<path class="st1" d="M41,9.6c-2.8-1.2-5.9-1.7-9-1.6c-3.1-0.1-6.2,0.4-9,1.6c-1.2,0.5-2.3,1.3-3,2.4v2c0.7-1.1,1.8-1.9,3-2.4
		c2.8-1.2,5.9-1.7,9-1.6c3.1-0.1,6.2,0.4,9,1.6c1.2,0.5,2.3,1.3,3,2.4v-2C43.3,10.9,42.2,10.1,41,9.6z"/>
	<rect x="35" y="52" class="st7" width="7" height="2"/>
	<path class="st8" d="M22.5,37v19.6l-2.7,0.9c-0.2,0.1-0.3,0.3-0.3,0.5v5h1v-4.6l2.5-0.8l2.5,0.8V63h1v-5c0-0.2-0.1-0.4-0.3-0.5
		l-2.7-0.9V37c0-1.4,1.1-2.5,2.5-2.5h2v-1h-2C24.1,33.5,22.5,35.1,22.5,37z"/>
	<path class="st8" d="M38,33.5h-2v1h2c1.4,0,2.5,1.1,2.5,2.5v15h1V37C41.5,35.1,39.9,33.5,38,33.5z"/>
</g>
</svg>
